src/symbolic/status/network-error-symbolic.svg

<svg xmlns="http://www.w3.org/2000/svg" width="16" height="16"><path d="M10 0v2H7v5h3v2l1-.818V5h3.889l.611-.5L10 0z" fill="#444" opacity=".3"/><path d="M6 6L.5 10.5 6 15v-2h3V8H6z" fill="#444" opacity=".3"/><path class="warning" d="M12 6v4l.25 2h1.5l.25-2V6zm0 7v2h2v-2z" fill="#5294e2"/></svg>

<svg xmlns="http://www.w3.org/2000/svg" width="16" height="16" version="1.1">
 <path style="fill:#444444;opacity:0.3" d="M 10 0 L 10 2 L 7 2 L 7 7 L 10 7 L 10 9 L 11 8.1816 L 11 5 L 14.889 5 L 15.5 4.5 L 10 0 z"/>
 <path style="fill:#444444;opacity:0.3" d="M 6,6 0.5,10.5 6,15 V 13 H 9 V 8 H 6 Z"/>
 <path style="fill:#5294e2" class="warning" d="M 12,6 V 10 L 12.25,12 H 13.75 L 14,10 V 6 Z M 12,13 V 15 H 14 V 13 Z"/>
</svg>
